X:1
T:James Gibb editions
T:Psalm 49 (Becker) - Schütz
%%score [ ( 1 2 ) ( 3 4 ) ]
L:1/8
Q:1/4=98
M:2/2
K:C
V:1 treble nm="Soprano Alto"
V:2 treble 
V:3 bass nm="Tenor Bass"
V:4 bass 
V:1
"^Cornelius Becker\n(1561-1604)""^Psalm 49, SWV 146""^Heinrich Schütz\n(1585-1672)" d4 d2 d2 | %1
 e2 A2 B2 c2 | d4 B4 | A2 c2 B2 A2 | E2 ^F2 G4 |[M:2/2] D4 F2 G2 | A2 A2 G4 | ^F4 d4 | %8
 e2 A2 B2 G2 | A2 B2 c4 | G4 A2 c2 | B2 d2 c2 B2 | A4 c4 | B2 e2 d2 B2 | c4 B8 |] %15
V:2
 G4 ^F2 G2 | G2 =F2 D2 A2 | ^F4 G4 | =F2 E2 G2 E2 | (CG,) D2 D4 |[M:2/2] B,4 D2 E2 | %6
w: ~Hört zu, ihr|Völ- ker ins- ge-|mein, so|viel auf die- ser|Er\- * den sein,|merkt auf mein|
 F2 D (D2 ^C/B,/ !courtesy!^C2) | D4 D2 G2- | G2 ^F2 G2 D2 | ^F2 G2 G4 | E4 C2 E2 | D2 F2 E2 E2 | %12
w: Red gar e\- * * *|ben, beid hoch|* und nie- drig,|arm und reich,|seid an- ge-|mah- net all- zu-|
 E4 E4 | E2 G2 G2 G(G- | G^F/E/ !courtesy!^F2) G8 |] %15
w: gleich, mit|fleiß Ge- hör zu ge\-|* * * * ben.|
V:3
 B,4 A,2 B,2 | C2 C2 (GF) E2 | D4 D4 | D2 C2 E2 C2 | (G,C) A,2 B,4 |[M:2/2] G,4 A,2 C2 | %6
 C2 A,2 (B,2 A,G,) | A,4 B,4 | G,2 D2 D2 B,2 | D2 D2 E4 | %10
"^2. Mein Mund von Weisheit reden soll,\nund sagen, wes mein Herz ist voll,\no Gott, laß wohl gelingen,\nein guten Spruch ich will anfahn,\nein schön Gedicht erschallen lan,\ndie Harfe soll drein klingen.\n\n3. Warum sollt ich mich fürchten sehr\nzur bösen Zeit, wenns gottlos Heer\nmich unter sich will treten,\nsie bauen auf ihr großes Gut,\nReichtum macht ihnen stolz den Mut\nund kann sie doch nicht retten.\n\n4. Niemand sein Bruder lösen kann\nvom Tod, Gott nimmt kein Sühnung an,\ndie Sünd ist über Maßen,\nwer eine Seel erlösen wollt,\nob er barböte alles Gold,\nmuß ers doch bleiben lassen." C4 A,2 G,2 | %11
 G,2 A,2 A,2 ^G,2 | A,4 A,4 | %13
"^5. Der Gottlos wohl ein Zeit lang lebt,\nin aller Freud Wollust schwebt,\nzuletzt muß er doch sterben,\nsowohl der Weise als der Tor,\ndes Reichen Gut hilft nichts davor,\nein ander muß es erben.\n\n9. Ich weiß, Gott wird die Seele mein\nbewahren vor der Höllen Pein,\ner hat mich angenommen.\nwährt auch der Gottlos Reich ein Zeit\nund schwebt in großer Herrlichkeit,\nlaß dirs nicht fremd vorkommen.\n\n10. Sein Herrlichkeit bleibt in der Welt,\nihm fährt nicht nach sein Gut und Geld,\ner muß dies alles lassen,\nauf Erden war fein Leben gut,\ner lobts und hat ein fröhlich'n Mut,\nfährt doch dahin sein Straßen." G,2 C2 B,2 D2 | %14
"^7" C4 D8 |] %15
V:4
 G,4 D,2 G,2 | C,2 F,2 G,2 A,2 | D,4 G,4 | D,2 A,2 E,2 A,,2 | C,2 D,2 G,,4 |[M:2/2] G,,4 D,2 C,2 | %6
 F,2 F,2 E,4 | D,4 G,4 | C,2 D,2 G,2 G,2 | D,2 G,2 C,4 | C,4 F,2 C,2 | G,2 D,2 A,,2 E,2 | %12
 A,,4 A,,4 | E,2 C,2 G,2 G,2 | A,4 G,8 |] %15

